modules/themify-icons/icons/layout-accordion-separated.svg

<?xml version="1.0" encoding="utf-8"?>
<!-- Generated by IcoMoon.io -->
<!DOCTYPE svg PUBLIC "-//W3C//DTD SVG 1.1//EN" "http://www.w3.org/Graphics/SVG/1.1/DTD/svg11.dtd">
<svg version="1.1" xmlns="http://www.w3.org/2000/svg" xmlns:xlink="http://www.w3.org/1999/xlink" width="17" height="17" viewBox="0 0 17 17">
<g>
</g>
	<path d="M0 0v3h17v-3h-17zM16 2h-15v-1h15v1zM0 13h17v-9h-17v9zM1 5h15v7h-15v-7zM0 17h17v-3h-17v3zM1 15h15v1h-15v-1z" fill="#000000" />
</svg>

<svg xmlns="http://www.w3.org/2000/svg" width="17" height="17" viewBox="0 0 17 17"><path d="M0 0v3h17V0H0zm16 2H1V1h15v1zM0 13h17V4H0v9zm1-8h15v7H1V5zM0 17h17v-3H0v3zm1-2h15v1H1v-1z"/></svg>
